build/img/icons/lock.svg

<svg width="21" height="24" viewBox="0 0 21 24" fill="none" xmlns="http://www.w3.org/2000/svg">
<path fill-rule="evenodd" clip-rule="evenodd" d="M20.0323 15.8232C20.0323 16.3194 19.6319 16.7217 19.138 16.7217C18.644 16.7217 18.2437 16.3194 18.2437 15.8232V12.499C18.2437 11.5082 17.4413 10.7021 16.4551 10.7021H3.57719C2.59096 10.7021 1.78859 11.5082 1.78859 12.499V19.8662C1.78859 20.857 2.59096 21.6631 3.57719 21.6631H16.4551C17.4413 21.6631 18.2437 20.857 18.2437 19.8662C18.2437 19.37 18.644 18.9678 19.138 18.9678C19.6319 18.9678 20.0323 19.37 20.0323 19.8662C20.0323 21.8478 18.4275 23.46 16.4551 23.46H3.57719C1.60473 23.46 0 21.8478 0 19.8662V12.499C0 10.5174 1.60473 8.90527 3.57719 8.90527H4.64869V5.73675C4.64869 2.82712 7.05578 0.459961 10.0145 0.459961C12.9732 0.459961 15.3803 2.82712 15.3803 5.73675V8.90527H16.4551C18.4275 8.90527 20.0323 10.5174 20.0323 12.499V15.8232ZM6.43729 5.73675V8.90527H13.5917V5.73675C13.5917 3.81792 11.9869 2.25684 10.0145 2.25684C8.04201 2.25684 6.43729 3.81792 6.43729 5.73675ZM15.5806 16.0406C15.5806 16.4504 15.2485 16.7825 14.8387 16.7825C14.429 16.7825 14.0968 16.4504 14.0968 16.0406C14.0968 15.6308 14.429 15.2987 14.8387 15.2987C15.2485 15.2987 15.5806 15.6308 15.5806 16.0406ZM8.16129 16.7825C8.57105 16.7825 8.90323 16.4504 8.90323 16.0406C8.90323 15.6308 8.57105 15.2987 8.16129 15.2987C7.75153 15.2987 7.41935 15.6308 7.41935 16.0406C7.41935 16.4504 7.75153 16.7825 8.16129 16.7825ZM5.93548 16.0406C5.93548 16.4504 5.60331 16.7825 5.19355 16.7825C4.78379 16.7825 4.45161 16.4504 4.45161 16.0406C4.45161 15.6308 4.78379 15.2987 5.19355 15.2987C5.60331 15.2987 5.93548 15.6308 5.93548 16.0406ZM11.871 16.7825C12.2807 16.7825 12.6129 16.4504 12.6129 16.0406C12.6129 15.6308 12.2807 15.2987 11.871 15.2987C11.4612 15.2987 11.129 15.6308 11.129 16.0406C11.129 16.4504 11.4612 16.7825 11.871 16.7825Z" fill="#FF2E2E"/>
</svg>

<svg width="21" height="24" fill="none" xmlns="http://www.w3.org/2000/svg"><path fill-rule="evenodd" clip-rule="evenodd" d="M20.032 15.823c0 .496-.4.899-.894.899a.896.896 0 01-.894-.899V12.5c0-.99-.803-1.797-1.789-1.797H3.577c-.986 0-1.788.806-1.788 1.797v7.367c0 .991.802 1.797 1.788 1.797h12.878c.986 0 1.789-.806 1.789-1.797 0-.496.4-.898.894-.898s.894.402.894.898c0 1.982-1.605 3.594-3.577 3.594H3.577C1.605 23.46 0 21.848 0 19.866V12.5c0-1.982 1.605-3.594 3.577-3.594H4.65V5.737C4.65 2.827 7.057.46 10.015.46c2.96 0 5.366 2.367 5.366 5.277v3.168h1.075c1.973 0 3.577 1.612 3.577 3.594v3.324zM6.437 5.737v3.168h7.155V5.737c0-1.92-1.605-3.48-3.578-3.48-1.972 0-3.577 1.56-3.577 3.48zm9.144 10.304a.742.742 0 11-1.484 0 .742.742 0 011.484 0zm-7.42.741a.742.742 0 100-1.483.742.742 0 000 1.483zm-2.226-.741a.742.742 0 11-1.483 0 .742.742 0 011.483 0zm5.936.741a.742.742 0 100-1.483.742.742 0 000 1.483z" fill="#FF2E2E"/></svg>
